X:444
T:Madame Hillisberg’s Scotch Dance. RH.445
R:strathspey
S:Rev.R.Harrison’s MS,c1815,Cumbria
O:England
A:Temple Sowerby,Cumbria
Z:vmp.Simon Wilson. Review PJH, 2008.
M:C
L:1/8
Q:2/4=60
K:D
F|D>EF>G A>BAF|D>FA>F Addf|\
D>EF>G A>BA>F|Ef (g/f/e/d/) (ce)ef|!
D>EF>G A>BA>F|D>FAF A<d fg|\
afdA Bga>g|g>fed cee||!
f|d>df>d a>ff>d|A>df>d a/g/f/e/ ef|\
d>df>d a>df>d|B>d B/A/G/F/ Eeef|!
d>df>d a>df>d|A>df>d b/a/g/f/ ef|\
d>fd>A B>dA>F|A>GF>E Ddd|]

